X: 8224
T: Copper Beech, The
R: hornpipe
M: 4/4
K: Fmajor
|:z c|fefg afcB|ABcA FAcA|Bdga bagf|efgf ec=B_B|
Acfg aAaA|GBga bBba|gfed c^cde|(3fgf eg f2:|
|:cB|Ac (3cdc Ac (3cdc|(3ABc fg afcA|Bd (3ded (3Bcd Bd|bagf ecBG|
Acfg afcA|GBga bgdb|gecB GECE|(3FGF EG F2:|

